X:1
T:Den Fromme Helena
T:Den Fromme Helena
T:Nedtegnet med siffernoter av Ole Andersen Mærlie (1873)
L:1/8
Q:1/4=70
M:2/4
K:F
V:1 treble nm="Stemme" snm="St."
V:1
 A |"Dm" F2 ED |"A7" A2 AG |"Dm" (FG)"A7" AA |"Dm" D2 EF |"Gm" G2 EF |"A7" G2 AG | %7
w: Den|from- me He-|le- na i|Maan- * skin- net|sad, og *|sku- e- de|Him- me- lens|
"Dm" (FG)"A" !fermata!AA |"Dm" (Ad) dd |"Am" (dc) cc |"Gm" (AB) Bc |"Dm" A3 A |"Gm" (AB) BB | %13
w: Stjer- * ner. De|sorg- * ful- de|Tan- * ker i|Hjer- * tet hun|bar. Frem-|pres- * sed- e|
"Dm" (BA) AA |"A7" (AG) GE |"Dm" F2"Am" (Ac) |"Dm" d2 DE | F2 AG |"A7" A4 |"Dm" D3 |] %20
w: Taa- * rer paa|Kin- * den saa|klar der *|glit- tred som|rul- len- de|Stjer-|ner.|

